Newaita-dark/apps/22/com.github.allen-b1.news.svg

<svg height="22pt" viewBox="0 0 22 22" width="22pt" xmlns="http://www.w3.org/2000/svg" xmlns:xlink="http://www.w3.org/1999/xlink"><linearGradient id="a" gradientUnits="userSpaceOnUse" x1="10.9151146" x2="10.9151146" y1="19.27333615" y2="20.18292934324"><stop offset="0" stop-opacity=".27451"/><stop offset="1" stop-opacity="0"/></linearGradient><linearGradient id="b"><stop offset="0" stop-opacity=".313725"/><stop offset=".222222" stop-opacity=".27451"/><stop offset="1" stop-opacity="0"/></linearGradient><radialGradient id="c" cx="450.90894" cy="189.57936" gradientTransform="matrix(.00000012 -.0537161 -.0966889 -.00000007 36.522014 43.721792)" gradientUnits="userSpaceOnUse" r="21.166656" xlink:href="#b"/><radialGradient id="d" cx="450.90894" cy="189.57936" gradientTransform="matrix(-.00000012 .0537161 .0966889 .00000007 -14.578106 -5.175142)" gradientUnits="userSpaceOnUse" r="21.166656" xlink:href="#b"/><radialGradient id="e" cx="450.90894" cy="189.57936" gradientTransform="matrix(-.00000012 -.0537161 .0966889 -.00000007 -14.578106 43.721792)" gradientUnits="userSpaceOnUse" r="21.166656" xlink:href="#b"/><radialGradient id="f" cx="450.90894" cy="189.57936" gradientTransform="matrix(.00000012 .0537161 -.0966889 .00000007 36.522013 -5.175142)" gradientUnits="userSpaceOnUse" r="21.166656" xlink:href="#b"/><linearGradient id="g" gradientUnits="userSpaceOnUse" x1="10.9151166" x2="10.9151166" y1="19.27333515" y2="1.99106705676"><stop offset="0" stop-color="#f44336"/><stop offset="1" stop-color="#ef5350"/></linearGradient><linearGradient id="h" gradientUnits="userSpaceOnUse" x1="11.824696" x2="11.824696" y1="19.27332442218" y2="1.99107562629"><stop offset="0" stop-color="#bdbdbd"/><stop offset="1" stop-color="#e0e0e0"/></linearGradient><path d="m3.523438 19.273438h14.894531v.910156h-14.894531zm0 0" fill="url(#a)"/><path d="m18.417969 19.273438h1.820312v-.910157h-1.820312zm0 0" fill="url(#c)"/><path d="m3.523438 19.273438h-1.816407v.910156h1.816407zm0 0" fill="url(#d)"/><path d="m3.523438 19.273438h-1.816407v-.910157h1.816407zm0 0" fill="url(#e)"/><path d="m18.417969 19.273438h1.820312v.910156h-1.820312zm0 0" fill="url(#f)"/><path d="m2.5 1.992188h16.828125c.378906 0 .683594.304687.683594.679687v15.917969c0 .378906-.304688.683594-.683594.683594h-16.828125c-.375 0-.679688-.304688-.679688-.683594v-15.917969c0-.375.304688-.679687.679688-.679687zm0 0" fill="url(#g)"/><path d="m2.5 1.992188c-.375 0-.679688.304687-.679688.679687v.113281c0-.375.304688-.679687.679688-.679687h16.828125c.378906 0 .683594.304687.683594.679687v-.113281c0-.375-.304688-.679687-.683594-.679687zm0 0" fill="#fff" fill-opacity=".392157"/><path d="m2.5 19.273438c-.375 0-.679688-.304688-.679688-.683594v-.113282c0 .378907.304688.683594.679688.683594h16.828125c.378906 0 .683594-.304687.683594-.683594v.113282c0 .378906-.304688.683594-.683594.683594zm0 0" fill="#030303" fill-opacity=".235294"/><path d="m2.5 1.925781c-.410156 0-.746094.335938-.746094.746094v15.917969c0 .414062.335938.746094.746094.746094h16.828125c.414063 0 .746094-.332032.746094-.746094v-15.917969c0-.410156-.332031-.746094-.746094-.746094zm0 .128907h16.828125c.34375 0 .617187.273437.617187.617187v15.917969c0 .34375-.273437.617187-.617187.617187h-16.828125c-.34375 0-.617188-.273437-.617188-.617187v-15.917969c0-.34375.273438-.617187.617188-.617187zm0 0" fill="#212121"/><path d="m3.636719 4.71875c-.25 0-.453125.203125-.453125.457031v.910157c0 .25.203125.453124.453125.453124 6.046875 0 10.917969 4.867188 10.917969 10.914063 0 .253906.203124.457031.453124.457031h.910157c.25 0 .453125-.203125.453125-.457031 0-7.054687-5.679688-12.734375-12.734375-12.734375zm0 3.640625c-.25 0-.453125.203125-.453125.453125v.910156c0 .25.203125.453125.453125.453125 4.03125 0 7.277343 3.246094 7.277343 7.277344 0 .253906.203126.457031.457032.457031h.910156c.25 0 .453125-.203125.453125-.457031 0-5.039063-4.058594-9.09375-9.097656-9.09375zm2.046875 4.546875c-1.382813 0-2.5 1.117188-2.5 2.5 0 1.386719 1.117187 2.503906 2.5 2.503906 1.386718 0 2.503906-1.117187 2.503906-2.503906 0-1.382812-1.117188-2.5-2.503906-2.5zm0 0" fill="url(#h)"/><path d="m3.636719 4.71875c-.25 0-.453125.203125-.453125.457031v.339844c0-.25.203125-.453125.453125-.453125 6.960937 0 12.582031 5.523438 12.734375 12.445312 0-.015624 0-.035156 0-.054687 0-7.054687-5.679688-12.734375-12.734375-12.734375zm0 3.640625c-.25 0-.453125.203125-.453125.453125v.339844c0-.25.203125-.453125.453125-.453125 4.949219 0 8.945312 3.90625 9.09375 8.816406.003906-.019531.003906-.039063.003906-.0625 0-5.039063-4.058594-9.09375-9.097656-9.09375zm2.046875 4.546875c-1.382813 0-2.5 1.117188-2.5 2.5 0 .058594.003906.117188.003906.171875.089844-1.304687 1.167969-2.332031 2.496094-2.332031s2.410156 1.027344 2.496094 2.332031c.003906-.054687.007812-.113281.007812-.171875 0-1.382812-1.117188-2.5-2.503906-2.5zm0 0" fill="#fff"/><path d="m3.183594 6.085938v.453124c0 .25.203125.453126.453125.453126 6.046875 0 10.917969 4.871093 10.917969 10.917968 0 .25.203124.453125.453124.453125h.910157c.25 0 .453125-.203125.453125-.453125 0-.128906 0-.257812-.003906-.382812-.035157.214844-.222657.382812-.449219.382812h-.910157c-.25 0-.453124-.203125-.453124-.457031 0-6.046875-4.871094-10.914063-10.917969-10.914063-.25 0-.453125-.203124-.453125-.453124zm0 3.636718v.453125c0 .253907.203125.457031.453125.457031 4.03125 0 7.277343 3.246094 7.277343 7.277344 0 .25.203126.453125.457032.453125h.910156c.25 0 .453125-.203125.453125-.453125 0-.125-.003906-.25-.007813-.375-.039062.214844-.222656.375-.445312.375h-.910156c-.253906 0-.457032-.203125-.457032-.457031 0-4.03125-3.246093-7.277344-7.277343-7.277344-.25 0-.453125-.203125-.453125-.453125zm.011718 5.914063c-.007812.074219-.011718.148437-.011718.226562 0 1.386719 1.117187 2.5 2.5 2.5 1.386718 0 2.503906-1.113281 2.503906-2.5 0-.078125-.003906-.152343-.011719-.226562-.113281 1.277343-1.183593 2.273437-2.492187 2.273437s-2.375-.996094-2.488282-2.273437zm0 0" fill-opacity=".235294"/><path d="m319.854928 415.021217c-21.987879 0-39.853031 17.865152-39.853031 40.196592v80.049622c0 21.987879 17.865152 39.853031 39.853031 39.853031 531.831825 0 960.251906 428.07652 960.251906 959.908345 0 22.33144 17.865152 40.196592 39.853031 40.196592h80.049622c21.987879 0 39.853031-17.865152 39.853031-40.196592 0-620.470462-499.537127-1120.00759-1120.00759-1120.00759zm0 320.198489c-21.987879 0-39.853031 17.865152-39.853031 39.853031v80.049622c0 21.987879 17.865152 39.853031 39.853031 39.853031 354.55455 0 640.053417 285.498867 640.053417 640.053417 0 22.33144 17.865152 40.196592 40.196592 40.196592h80.049622c21.987879 0 39.853031-17.865152 39.853031-40.196592 0-443.193187-356.959474-799.809101-800.152662-799.809101zm180.02576 399.904551c-121.620456 0-219.878791 98.258334-219.878791 219.87879 0 121.964017 98.258335 220.222352 219.878791 220.222352 121.964017 0 220.222351-98.258335 220.222351-220.222352 0-121.620456-98.258334-219.87879-220.222351-219.87879zm0 0" fill="none" stroke="#212121" stroke-linecap="round" stroke-linejoin="round" stroke-width="11.338583" transform="scale(.0113699)"/></svg>

<?xml version="1.0" encoding="UTF-8"?>
<svg xmlns="http://www.w3.org/2000/svg" xmlns:xlink="http://www.w3.org/1999/xlink" width="22pt" height="22pt" viewBox="0 0 22 22" version="1.1">
<defs>
<linearGradient id="linear0" gradientUnits="userSpaceOnUse" x1="254" y1="233.5" x2="254" y2="254.66667" gradientTransform="matrix(0.0429729,0,0,0.0429729,-0.00000171891,9.239164)">
<stop offset="0" style="stop-color:rgb(0%,0%,0%);stop-opacity:0.27451;"/>
<stop offset="1" style="stop-color:rgb(0%,0%,0%);stop-opacity:0;"/>
</linearGradient>
<radialGradient id="radial0" gradientUnits="userSpaceOnUse" cx="450.90894" cy="189.57936" fx="450.90894" fy="189.57936" r="21.166656" gradientTransform="matrix(0.000000119742,-0.0537161,-0.0966889,-0.0000000698078,36.522014,43.721792)">
<stop offset="0" style="stop-color:rgb(0%,0%,0%);stop-opacity:0.313725;"/>
<stop offset="0.222222" style="stop-color:rgb(0%,0%,0%);stop-opacity:0.27451;"/>
<stop offset="1" style="stop-color:rgb(0%,0%,0%);stop-opacity:0;"/>
</radialGradient>
<radialGradient id="radial1" gradientUnits="userSpaceOnUse" cx="450.90894" cy="189.57936" fx="450.90894" fy="189.57936" r="21.166656" gradientTransform="matrix(-0.000000119742,0.0537161,0.0966889,0.0000000698078,-14.578106,-5.175142)">
<stop offset="0" style="stop-color:rgb(0%,0%,0%);stop-opacity:0.313725;"/>
<stop offset="0.222222" style="stop-color:rgb(0%,0%,0%);stop-opacity:0.27451;"/>
<stop offset="1" style="stop-color:rgb(0%,0%,0%);stop-opacity:0;"/>
</radialGradient>
<radialGradient id="radial2" gradientUnits="userSpaceOnUse" cx="450.90894" cy="189.57936" fx="450.90894" fy="189.57936" r="21.166656" gradientTransform="matrix(-0.000000119742,-0.0537161,0.0966889,-0.0000000698078,-14.578106,43.721792)">
<stop offset="0" style="stop-color:rgb(0%,0%,0%);stop-opacity:0.313725;"/>
<stop offset="0.222222" style="stop-color:rgb(0%,0%,0%);stop-opacity:0.27451;"/>
<stop offset="1" style="stop-color:rgb(0%,0%,0%);stop-opacity:0;"/>
</radialGradient>
<radialGradient id="radial3" gradientUnits="userSpaceOnUse" cx="450.90894" cy="189.57936" fx="450.90894" fy="189.57936" r="21.166656" gradientTransform="matrix(0.000000119742,0.0537161,-0.0966889,0.0000000698078,36.522013,-5.175142)">
<stop offset="0" style="stop-color:rgb(0%,0%,0%);stop-opacity:0.313725;"/>
<stop offset="0.222222" style="stop-color:rgb(0%,0%,0%);stop-opacity:0.27451;"/>
<stop offset="1" style="stop-color:rgb(0%,0%,0%);stop-opacity:0;"/>
</radialGradient>
<linearGradient id="linear1" gradientUnits="userSpaceOnUse" x1="254" y1="233.5" x2="254" y2="-168.66667" gradientTransform="matrix(0.0429729,0,0,0.0429729,0,9.239163)">
<stop offset="0" style="stop-color:rgb(95.686275%,26.27451%,21.176471%);stop-opacity:1;"/>
<stop offset="1" style="stop-color:rgb(93.72549%,32.54902%,31.372549%);stop-opacity:1;"/>
</linearGradient>
<linearGradient id="linear2" gradientUnits="userSpaceOnUse" x1="1040" y1="1695.1182" x2="1040" y2="175.11813" gradientTransform="matrix(0.0113699,0,0,0.0113699,0,0)">
<stop offset="0" style="stop-color:rgb(74.117647%,74.117647%,74.117647%);stop-opacity:1;"/>
<stop offset="1" style="stop-color:rgb(87.843137%,87.843137%,87.843137%);stop-opacity:1;"/>
</linearGradient>
</defs>
<g id="surface1">
<path style=" stroke:none;fill-rule:nonzero;fill:url(#linear0);" d="M 3.523438 19.273438 L 18.417969 19.273438 L 18.417969 20.183594 L 3.523438 20.183594 Z M 3.523438 19.273438 "/>
<path style=" stroke:none;fill-rule:nonzero;fill:url(#radial0);" d="M 18.417969 19.273438 L 20.238281 19.273438 L 20.238281 18.363281 L 18.417969 18.363281 Z M 18.417969 19.273438 "/>
<path style=" stroke:none;fill-rule:nonzero;fill:url(#radial1);" d="M 3.523438 19.273438 L 1.707031 19.273438 L 1.707031 20.183594 L 3.523438 20.183594 Z M 3.523438 19.273438 "/>
<path style=" stroke:none;fill-rule:nonzero;fill:url(#radial2);" d="M 3.523438 19.273438 L 1.707031 19.273438 L 1.707031 18.363281 L 3.523438 18.363281 Z M 3.523438 19.273438 "/>
<path style=" stroke:none;fill-rule:nonzero;fill:url(#radial3);" d="M 18.417969 19.273438 L 20.238281 19.273438 L 20.238281 20.183594 L 18.417969 20.183594 Z M 18.417969 19.273438 "/>
<path style=" stroke:none;fill-rule:nonzero;fill:url(#linear1);" d="M 2.5 1.992188 L 19.328125 1.992188 C 19.707031 1.992188 20.011719 2.296875 20.011719 2.671875 L 20.011719 18.589844 C 20.011719 18.96875 19.707031 19.273438 19.328125 19.273438 L 2.5 19.273438 C 2.125 19.273438 1.820312 18.96875 1.820312 18.589844 L 1.820312 2.671875 C 1.820312 2.296875 2.125 1.992188 2.5 1.992188 Z M 2.5 1.992188 "/>
<path style=" stroke:none;fill-rule:nonzero;fill:rgb(100%,100%,100%);fill-opacity:0.392157;" d="M 2.5 1.992188 C 2.125 1.992188 1.820312 2.296875 1.820312 2.671875 L 1.820312 2.785156 C 1.820312 2.410156 2.125 2.105469 2.5 2.105469 L 19.328125 2.105469 C 19.707031 2.105469 20.011719 2.410156 20.011719 2.785156 L 20.011719 2.671875 C 20.011719 2.296875 19.707031 1.992188 19.328125 1.992188 Z M 2.5 1.992188 "/>
<path style=" stroke:none;fill-rule:nonzero;fill:rgb(1.176471%,1.176471%,1.176471%);fill-opacity:0.235294;" d="M 2.5 19.273438 C 2.125 19.273438 1.820312 18.96875 1.820312 18.589844 L 1.820312 18.476562 C 1.820312 18.855469 2.125 19.160156 2.5 19.160156 L 19.328125 19.160156 C 19.707031 19.160156 20.011719 18.855469 20.011719 18.476562 L 20.011719 18.589844 C 20.011719 18.96875 19.707031 19.273438 19.328125 19.273438 Z M 2.5 19.273438 "/>
<path style=" stroke:none;fill-rule:nonzero;fill:rgb(12.941176%,12.941176%,12.941176%);fill-opacity:1;" d="M 2.5 1.925781 C 2.089844 1.925781 1.753906 2.261719 1.753906 2.671875 L 1.753906 18.589844 C 1.753906 19.003906 2.089844 19.335938 2.5 19.335938 L 19.328125 19.335938 C 19.742188 19.335938 20.074219 19.003906 20.074219 18.589844 L 20.074219 2.671875 C 20.074219 2.261719 19.742188 1.925781 19.328125 1.925781 Z M 2.5 2.054688 L 19.328125 2.054688 C 19.671875 2.054688 19.945312 2.328125 19.945312 2.671875 L 19.945312 18.589844 C 19.945312 18.933594 19.671875 19.207031 19.328125 19.207031 L 2.5 19.207031 C 2.15625 19.207031 1.882812 18.933594 1.882812 18.589844 L 1.882812 2.671875 C 1.882812 2.328125 2.15625 2.054688 2.5 2.054688 Z M 2.5 2.054688 "/>
<path style=" stroke:none;fill-rule:nonzero;fill:url(#linear2);" d="M 3.636719 4.71875 C 3.386719 4.71875 3.183594 4.921875 3.183594 5.175781 L 3.183594 6.085938 C 3.183594 6.335938 3.386719 6.539062 3.636719 6.539062 C 9.683594 6.539062 14.554688 11.40625 14.554688 17.453125 C 14.554688 17.707031 14.757812 17.910156 15.007812 17.910156 L 15.917969 17.910156 C 16.167969 17.910156 16.371094 17.707031 16.371094 17.453125 C 16.371094 10.398438 10.691406 4.71875 3.636719 4.71875 Z M 3.636719 8.359375 C 3.386719 8.359375 3.183594 8.5625 3.183594 8.8125 L 3.183594 9.722656 C 3.183594 9.972656 3.386719 10.175781 3.636719 10.175781 C 7.667969 10.175781 10.914062 13.421875 10.914062 17.453125 C 10.914062 17.707031 11.117188 17.910156 11.371094 17.910156 L 12.28125 17.910156 C 12.53125 17.910156 12.734375 17.707031 12.734375 17.453125 C 12.734375 12.414062 8.675781 8.359375 3.636719 8.359375 Z M 5.683594 12.90625 C 4.300781 12.90625 3.183594 14.023438 3.183594 15.40625 C 3.183594 16.792969 4.300781 17.910156 5.683594 17.910156 C 7.070312 17.910156 8.1875 16.792969 8.1875 15.40625 C 8.1875 14.023438 7.070312 12.90625 5.683594 12.90625 Z M 5.683594 12.90625 "/>
<path style=" stroke:none;fill-rule:nonzero;fill:rgb(100%,100%,100%);fill-opacity:1;" d="M 3.636719 4.71875 C 3.386719 4.71875 3.183594 4.921875 3.183594 5.175781 L 3.183594 5.515625 C 3.183594 5.265625 3.386719 5.0625 3.636719 5.0625 C 10.597656 5.0625 16.21875 10.585938 16.371094 17.507812 C 16.371094 17.492188 16.371094 17.472656 16.371094 17.453125 C 16.371094 10.398438 10.691406 4.71875 3.636719 4.71875 Z M 3.636719 8.359375 C 3.386719 8.359375 3.183594 8.5625 3.183594 8.8125 L 3.183594 9.152344 C 3.183594 8.902344 3.386719 8.699219 3.636719 8.699219 C 8.585938 8.699219 12.582031 12.605469 12.730469 17.515625 C 12.734375 17.496094 12.734375 17.476562 12.734375 17.453125 C 12.734375 12.414062 8.675781 8.359375 3.636719 8.359375 Z M 5.683594 12.90625 C 4.300781 12.90625 3.183594 14.023438 3.183594 15.40625 C 3.183594 15.464844 3.1875 15.523438 3.1875 15.578125 C 3.277344 14.273438 4.355469 13.246094 5.683594 13.246094 C 7.011719 13.246094 8.09375 14.273438 8.179688 15.578125 C 8.183594 15.523438 8.1875 15.464844 8.1875 15.40625 C 8.1875 14.023438 7.070312 12.90625 5.683594 12.90625 Z M 5.683594 12.90625 "/>
<path style=" stroke:none;fill-rule:nonzero;fill:rgb(0%,0%,0%);fill-opacity:0.235294;" d="M 3.183594 6.085938 L 3.183594 6.539062 C 3.183594 6.789062 3.386719 6.992188 3.636719 6.992188 C 9.683594 6.992188 14.554688 11.863281 14.554688 17.910156 C 14.554688 18.160156 14.757812 18.363281 15.007812 18.363281 L 15.917969 18.363281 C 16.167969 18.363281 16.371094 18.160156 16.371094 17.910156 C 16.371094 17.78125 16.371094 17.652344 16.367188 17.527344 C 16.332031 17.742188 16.144531 17.910156 15.917969 17.910156 L 15.007812 17.910156 C 14.757812 17.910156 14.554688 17.707031 14.554688 17.453125 C 14.554688 11.40625 9.683594 6.539062 3.636719 6.539062 C 3.386719 6.539062 3.183594 6.335938 3.183594 6.085938 Z M 3.183594 9.722656 L 3.183594 10.175781 C 3.183594 10.429688 3.386719 10.632812 3.636719 10.632812 C 7.667969 10.632812 10.914062 13.878906 10.914062 17.910156 C 10.914062 18.160156 11.117188 18.363281 11.371094 18.363281 L 12.28125 18.363281 C 12.53125 18.363281 12.734375 18.160156 12.734375 17.910156 C 12.734375 17.785156 12.730469 17.660156 12.726562 17.535156 C 12.6875 17.75 12.503906 17.910156 12.28125 17.910156 L 11.371094 17.910156 C 11.117188 17.910156 10.914062 17.707031 10.914062 17.453125 C 10.914062 13.421875 7.667969 10.175781 3.636719 10.175781 C 3.386719 10.175781 3.183594 9.972656 3.183594 9.722656 Z M 3.195312 15.636719 C 3.1875 15.710938 3.183594 15.785156 3.183594 15.863281 C 3.183594 17.25 4.300781 18.363281 5.683594 18.363281 C 7.070312 18.363281 8.1875 17.25 8.1875 15.863281 C 8.1875 15.785156 8.183594 15.710938 8.175781 15.636719 C 8.0625 16.914062 6.992188 17.910156 5.683594 17.910156 C 4.375 17.910156 3.308594 16.914062 3.195312 15.636719 Z M 3.195312 15.636719 "/>
<path style="fill:none;stroke-width:11.338583;stroke-linecap:round;stroke-linejoin:round;stroke:rgb(12.941176%,12.941176%,12.941176%);stroke-opacity:1;stroke-miterlimit:4;" d="M 319.854928 415.021217 C 297.867049 415.021217 280.001897 432.886369 280.001897 455.217809 L 280.001897 535.267431 C 280.001897 557.25531 297.867049 575.120462 319.854928 575.120462 C 851.686753 575.120462 1280.106834 1003.196982 1280.106834 1535.028807 C 1280.106834 1557.360247 1297.971986 1575.225399 1319.959865 1575.225399 L 1400.009487 1575.225399 C 1421.997366 1575.225399 1439.862518 1557.360247 1439.862518 1535.028807 C 1439.862518 914.558345 940.325391 415.021217 319.854928 415.021217 Z M 319.854928 735.219706 C 297.867049 735.219706 280.001897 753.084858 280.001897 775.072737 L 280.001897 855.122359 C 280.001897 877.110238 297.867049 894.97539 319.854928 894.97539 C 674.409478 894.97539 959.908345 1180.474257 959.908345 1535.028807 C 959.908345 1557.360247 977.773497 1575.225399 1000.104937 1575.225399 L 1080.154559 1575.225399 C 1102.142438 1575.225399 1120.00759 1557.360247 1120.00759 1535.028807 C 1120.00759 1091.83562 763.048116 735.219706 319.854928 735.219706 Z M 499.880688 1135.124257 C 378.260232 1135.124257 280.001897 1233.382591 280.001897 1355.003047 C 280.001897 1476.967064 378.260232 1575.225399 499.880688 1575.225399 C 621.844705 1575.225399 720.103039 1476.967064 720.103039 1355.003047 C 720.103039 1233.382591 621.844705 1135.124257 499.880688 1135.124257 Z M 499.880688 1135.124257 " transform="matrix(0.0113699,0,0,0.0113699,0,0)"/>
</g>
</svg>
